X:1
T:Pathetique Sonata op 13 mvt 2
T:Ludwig Van Beethoven
%%score { ( 1 3 ) | ( 2 4 ) }
L:1/8
Q:1/4=58
M:3/4
K:Ab
V:1 treble nm="Piano" snm="Pno"
V:3 treble 
V:2 bass 
V:4 bass 
V:1
 z6 | C6[K:bass] | z .E,3 z2 | z2 z2 C2 |[K:treble] E2 C .B3 | E6 | .=E2 F4[K:bass] | z2 z2 E2- | %8
 E2 =A,4 | z .F, z C2 B, | A,.G, B,2- B,-<[D,B,-] | %11
 [C,A,B,]2 z/ A,/ z/4[K:treble] C3/4 (3:2:2E A2 | CE z E B2- | B2 e4- | e2 d2 c2 | %15
 [Ee].B .a/-a/4-<.[ca-]/4a .A.=d | e6 | =e4 z2 | B3 z/ d/- d2 | z2 =A4[K:bass] | %20
[K:treble] d4[K:bass][K:treble] z2 | z2 B4- | B2 z2 z2 | c6 | z2 c'4- | c'2 gf c2- | c4 gf- | %27
 f2 =d4 | .=d/.[=DA]/ z/4 .D/4.e/ z/ .=C/.G .G.[EG] | F2 .E/>F/-F z/4 .=d3/4B | g2 .f2 z c/B/- | %31
 B2 z2 z2[K:bass] | G,B, G,.E, .[E,A,]2 | A,2 A,2 [F,A,]2 | G,6 | B,, .B,3 z .=D | =D.C C._C C.B, | %37
 [G,B,]6- | [G,B,]6- | [G,B,]4 C2- | C4 z2 | E6 | D2 C2[K:treble] z2 | z2 z2 E2- | E4 .=E2 | %45
 F4[K:bass] .G,2 | z/ z/4 E,/4-E,/D/- D2 z2 | E,C, E,/ z/4 z/8 C,/8-C, [B,,,D]2- | %48
 [B,,,D]2 CB, .[D,A,].G, | B,4 A,2 | %50
 z2 z/ z/4[K:treble] [_CE-]/4E3/8 z/16 E/16-E/4E/4- [E_c-][Ec-]3/8c/16-[Ec]/16-[Ec]/ | %51
 B z/ z/4 E/4- E2 z2 | z2 z/ .E3/2 ._c2 | z A A2[K:bass][K:treble] G2- | %54
 G2 A2[K:bass][K:treble] ._c2 | z/4 z/8 A/8-A3/2 .e2 z [_c_c']- | %56
 [cc']2 [=e=e']2[K:bass][K:treble] z ._c |[K:bass] z/ .[=A,-_CE]/4>A,/4-A, .[_A,C]2 z2 | %58
 z2 =E2 z[K:treble] _G | z =E[K:bass] z2[K:treble] =A2- | %60
 A2[K:bass] =E z/4 z/8 z/16[K:treble] _A/16-A/- AE3/4-E/16 z/16 z/8 | z2[K:bass] =D4 | %62
 z/ .=D3/2 D4 | z/ .=D3/2 _D4- | D .D3 [A,,C]2- | [A,,C]2 z2 z2 | z2 z2 .B,2 | D2 C2 z2 | %68
 .C2[K:treble] z2 z2 | z2[K:bass] z2 .=E2 |[K:treble] F4[K:bass] .G,2 | z2 A,3/4-A,3/16 z/16 z z2 | %72
 .E,2 z/ z/16 C,3/16 z/4 z/8 .C,3/8 z/ D2- | D2 [G,D]/ z/4 C/4-C/.B,/ B,/A,/.G, | %74
 B,/->[E,B,-]/B,3/8-B,/16-[E,B,]/16-[E,B,-]/ [D,B,]2 (3[C,A,]E,.A, | %75
[K:treble] .C/.E/.A c3/4-c/8-[Ec]/4-<[Ec-]/4c/16-[Ec]/16-[Ec-]/ [Cc-]/c/4-<[E,Ec]/4 z/4 .E3/4 | %76
 B/-[EB-]/[EB-]/[G,B,B-]/ [E,EB-]/[EB]/e- [Ae-]/[Ae-]/[Ee-]/[Ae-]/ | %77
 (3[Ae-][Ee-][Be-] [Be-]/[d-e]/[Bd-]/[Bd]/ c/-c/8->[Ac]/8-[Ac-]/4c/4-c/8-<[Ac-]/8c/ | %78
 e/-[Be]/.[E,B]/a/- [ca-]/a/4-<[ca]/4b- [=db-]/[db]/ z/4 e3/4- | %79
 [Be-]/[Be-]/[Ge-]/[Be-]/ [Be-]>[Be-] (3[Be]/=e/-[Ge-]/e | %80
 f/->[Bf-]/f/-[Bf-]/ [Gf-]/[Bf]/ z/4 .B3/4 B/->[EB-]/B/4-[EB-]/[GB]/4- | %81
 [GB]3/8-[GB-]/16[EB]/16-[EB]/c/d/ z/ z/8 z/16 E/16-E/4 z/4 z/16 E3/16 z/ .A/ z/8 .E3/8 z/4 .E3/4 | %82
 z/ z/4 C/4 z/4 z/8 C/8-C/ .E/ z/16 C3/16 z/4 z/4 .C3/4 d2- | d2 [Gd]/ z/4 c/4 z/ .[E,B]/ .B.A/G/ | %84
 [CA]6 | z2 z2 f2- | f2 .c2[K:bass][K:treble] z/ d/[K:bass][K:treble].B | %87
 A3/4-A/8 z/8 B/.A/ E,/.A/ E3 | z2 z2 [ff']2- | [ff']2 z2 .a>d' | z/ .[Gg]3/2 z2 z2 | %91
 z z/4 .[de]3/4 (3cdf (3:2:2e d2 | z2 z z/ z/4 c/4- c2 | z6 | z2[K:bass] .B,2 z2 | %95
 z2 .A,2 z [C,A,] | z2 z2 [A,,C,A,]2- | [A,,C,A,]6- | [A,,C,A,]2 z2 z2 |] %99
V:2
 z6 | z/ .A,/-.[E,A,] A,E, B,2- | B,3 E, A,E, | z .E, D2 [A,,A,]2 | G,,2 F,,2 F,2 | %5
 z B, G,B,/-[G,-B,]/ [E,,-G,][E,,-B,] | E,,2 z .B, .G,.B, | B,3 E, C,2- | C,2 z C, .E,2 | %9
 z D, .F,.D, D,.D, | .D,.D, z z/ E,/ A,,2- | [A,,E,]2 z E, z2 | .A,2 .A,2 [D,-B,][D,-E,] | %13
 D,-[D,E-] EE, A,E, | z .E, G,E, A,E, | [G,,G,].E, [F,,A].A,, [F,,F,]A,, | z G,, .B,,2 [G,G]B, | %17
 G,3/4-G,/8>B,/8-B, D,,G,, .[B,,G]2 | G,B, G,.[D,E][K:treble] z/ .A3/2 | %19
 .C,[K:bass].E, z .C, .F,F, | B,,-[B,,-F,D] [B,,D,]2 D.D/-<.[E,D]/ | .[B,,D].E, z E, z E,- | %22
 [E,A,A-]2 A2 z2 | z2 z2 z[K:treble] .C | .g2[K:bass] .[=E,C] z/8 [E,G,]3/8 z/ .[E,G,].[E,G,] | %25
 .[F,A,] z/4 .F,3/4 .[A,C].[A,C] [G,B,=E].[G,B,] | z2 z[K:treble] a .F2 | z2 z2 z/ z/4 A/4-A | %28
 ._C.f .[EG] z/4 .=C3/4 .[CE].C | .A,.A, .A, z/4 .A3/4 z2 | %30
[K:bass] .[B,E].[B,E] .[B,E]2 .[B,,A,].[B,,A,] | (3:2:4[B,,A,-]A, z/ E,/- E,2 z2 | z2 z2 z .=D, | %33
 .=D,2 .C,2 ._C,2 | E,6 | z G,, z .E .E2 | z2 [B,,F,]4 | z6 | z6 | z2 C,3- [C,E,] | .A,E, z2 z2 | %41
 C,-[C,-E,] [C,-A,][C,E,] G,,2- | G,,2 .[A,,A,]2 z .E, | z .A, .[F,B]2 z B, | %44
 .G,B, [E,,-G,][E,,-B,] E,,2 | z6 | z2 .A,2 z2 | [F,,=A,]4 F,.D, | z2 .D,2 z2 | %49
 (3z G,-[E,G,] z2 A,,,2- | %50
 [A,,,E]2 z2 A,,/8-[A,,-_C]/8[A,,-C]/8>[A,,CE]/8-[A,,-CE]/[A,,-C]3/8A,,/16-[A,,C]/16-[A,,-C]/4>[A,,C-]/4 | %51
 C/4 z/16 _C3/16 z/4 C/4 z/8[K:treble] .C3/8 z/8 .C3/8 .C/.[DE]3/8 z/16 [DE]/16-[DE-]/4E/8 z/16 [DE]/16-[DE]/ .D/.B,/ z/8 .=A,3/8.B,/ | %52
 .B,/[K:bass].[A,D]/.[G,D]/.[F,D]/ z/16 D3/16 z/4 ._C/ z/16 C3/16 z/4 .C/ .[CE]3/8 z/16 C/16-C3/8 z/16 C/16-C3/4 z/16 C3/16 | %53
 z/4 z/8 _C/8-C/4C/4 z/4 z/16 C3/16 z/ .E/<.[B,E]/.B,3/8 z/16 [B,E]/16-[B,E]/ .[B,E]/.E,/.[=D,B,]/.[E,B,]/ | %54
 z2 z2 z z/8 ._C3/8 z/ | %55
 ._C3/8 z/16 C/16-C/.C/.C/ .[=A,,_C,E,_G,]/ z/16 [A,,C,E,]3/16 z/4 z/16 [A,,E,]3/16 z/4 .[A,,C,E,]/ .[A,,C,E,G,]/.[A,,C,E,G,]/.[_A,,C,=E,A,]/.[A,,C,E,]/ | %56
 z z/4 z/8 A,/8-A,/ z2 .B,._C3/8 z/16 [_C,A,]/16-[C,A,]/ | z2 .=E,,2 z2 | %58
 .A,/.A,/4>A,/4-A,/.A,/ .[A,_C]/.A,/4>[K:treble]A,/4-A,/ z/8 .A,/4 z/16 A,/16- A,3/4 z/8[K:bass] [A,C]/8-[A,-C]/4A,/8A,/4-<A,/4A,/8- | %59
 A,/4>[A,_C]/4-[A,C]/4 z/16 A,3/16 z/4 z/16 A,3/16 z/ z/ .=A,/.A, z/8 .A,3/8 z/8 .[_G,A,]3/8 z/16 A,3/16 z/4 .[G,A,]/ | %60
 .[_G,=A,]/4>[=E,A,]/4-[E,A,]/4[_E,A,]/4 z/4 .[D,A,]/4.A,/ .[_A,_C]3/8 z/16 A,/16-A,3/8 z/16 A,/16-A,/.C/4>A,/4 z/4 z/8 A,/8 z/ .A,/4 z/16 [A,C]3/16 z/4 z/16 A,3/16 | %61
 (3z/4 E/4-[A,E-]/4E/ z/8 z/16 A,/16-A,3/4 z/8 .A,3/8 (3:2:4z/8 F,,,/8-[F,,,-_C]/4F,,,/4.A,,,/._C,,/ .=D,,/.[F,,=D,]/.[D,A,]/.[D,A,]/ | %62
 z2 z2 z .=D, | %63
 .A,/.[=D,A,_C]3/8 z/16 [D,A,]/16-[D,A,]/4>A,/4-A,/ .[_D,A,]/ z/16 [=E,,A,]3/16 z/4 .[A,,D,A,]/ z/16 B,,3/16-B,,/4 z/16 D,3/16-D,/4-D,/8>[D,A,]/8-[D,A,]/4 z/4 .[D,G,]3/4 | %64
 .[E,,G,]/ (3z/8 D,/8-[G,,D,]/ z/ B,,/- [B,,D,-]/D,/4G,/4-G, A,,,-[A,,,-E,]/A,,,/8->[A,,,E,]/8-[A,,,-E,]/4 | %65
 A,,,/-<[A,,,A,]/.E,3/8 z/16 E,/16-E,/ z/ G,/8>E,/8-E,/4-E,/4>E,/4 z/ .G,/E,/ z/8 z/16 E,/16-E,3/4 | %66
 E6 | .B,2 .[A,,A,]2 (3z .E,.E, | [F,,A]2 E4- | E4 z2 | z2 z2 D,2- | D,2 z2 z2 | %72
 z/ z/8 .C,3/8 z/4 z/16 C,3/16 z/ .E,2 (3z .D,.D, | %73
 .F,/ z/16 D,3/16-D,/4-D,/8>D,/8-D,3/4 z/ z/4 z/16 D,3/16-D,3/8 z/16 D,/16-D,/ .D,/ z/16 D,3/16-D,/4-D,/8>D,/8-D,3/4 | %74
 z G,- G,/-G,/8-<[E,G,-]/8G,/4 z/4 .E,3/4 A,,,2 | %75
 z2 A,3/4-A,/8E,/4-<E,/4 z/16 E,/16-E,/ .A, z/4 .E,3/4 | %76
 G,/.E,/.E, z/ z/16 E,3/16 z/4 A, .E,3/8 z/16 E,/16-E,/.A,/.E,/ | %77
 .E,2 z/4 .E,/8E,/8.G,/.E,/.E,/ A,/ z/8 z/16 E,/16-E,/4 z/4 z/16 E,3/16 z/ | %78
 [G,,G,] z/ F,/ z F, z2 | z2 z[K:treble] E2- E3/4-E3/16 z/16 | z2[K:bass] z2[K:treble] D2- | %81
 D2 C4 |[K:bass] F,4 (3z .D.D | %83
 .F/ z/8 .D3/8 z/4 .D3/4 B,,/ z/4 [E,D]/4-[E,D]/4>D/4-D/ (3:2:4D/ z/ D/4-[E,-D]/4E,/[E,D]/ | %84
 z A,, .E,/ z/8 z/16 E,/16-E,/4 z/4 .E,3/4 (3E,/ z/ E,/ z/ .E,/ | %85
 (3E,/ z/ E,/ z/4 z/8 E,/8-E,/ .E,(3E,/8[K:treble]=e/8-e/-e/[K:bass] .[E,,D,E,]3/4 z/8 D,/8 z/ .[E,,D,]/ | %86
 .[E,,D,]/ z/8 E,3/8-E,/4>[E,,D,E,]/4-[E,,D,E,]/ (3.[E,,E,].[E,,D,E,].[E,,D,] .[E,,E,]/>.[E,,D,]/ z/4 .[E,,D,]3/4 | %87
 .E,2 z .E, (3.E,/ z/ E,/ z/4 .E,3/4 | %88
 (3E,/ z/ .E,/ z/4 .E,3/4 .E,E,/<[K:treble].=e/[K:bass] .[E,,E,].[E,,D,]/>[E,,D,]/ | %89
 z2 z2 z z/ z/4 E,/4 | z2 A4 |[K:treble] [EG]6 | z2 z2 .B2 | z6 | z2[K:bass] .C=A,/B,/ DC | %95
 B,2 .[A,,C,]2 z [A,,,E,] | z2 z2 A,,,2- | A,,,6- | A,,,2 z2 z2 |] %99
V:3
 x6 | z2 z2[K:bass] [D,-G,][D,-E,] | [D,G,]2 [A,E-]2 E2- | [B,E]2 B,E, z E, | %4
[K:treble] z/ B,/-[E,B,-]/[B,A-]/ A-<[A,A] =D.A, | .G,2 z2 z2 | z/4 .G,3/4.B, z[K:bass] D,,3- | %7
 [D,,G,]E, G,C/D/ A,E, | .A,E, .E,2 z C, | D4 E,,2- | E,,2 .D,2 z2 | x13/4[K:treble] x11/4 | %12
 c->[E,c-] [C-c]C/E,/ z/ G,/E | B,/-[G,-B,]/.[G,E] z/ .A,/-.[A,A] EA | E.B EB EA | z2 .F,2 b2 | %16
 GB GB z .B | .GB [Gf-][Bf-] f.B | z/ G/E .G.c C,[E,E] | .A.E z/ E/C[K:bass] .[C,E].C | %20
[K:treble] .D,2 .F/>[K:bass]D/-[F,D][K:treble] [B,,c]B | A.[DG] DE [G,D]E- | [C-E]2 C2 z C | %23
 z .C .C.C .Ca | .C.[Cf] z/ .G,/.C .C.C | .C.[Ca] z/ .F,/ z/4 .F,3/4 z .=E | %26
 .=E.E .[CF].[CF] z/4 .C3/4 z | e-[Ae] z .[FA] A/ z/4 z/8 z/16 [Fe]/16-[Fe-]/4[=de]/4c/ | %28
 z .[_CA] e4 | .E.E z/4 .G/8-<.[FG]/8 z/16 =E3/16 z/4 _E/c/4_c/4 .=c/cG/- | %30
 G.G G/e/=d/c/ [=D,B]/=A/ z/4 .D,3/4 | A/-<[=D,A]/F [G,E]2 z[K:bass] B, | x6 | %33
 z/ .F,/.C, z ._C, z B,, | z2 z2 B,,G,, | z2 z2 [F,A,]2- | [F,A,]2 A,4 | %37
 z .F,/<.=E,/ E,._E, E,/>=D,/-D,/D,/- | D,/E,/E, .=E,E, ._E,E, | .=D,D, z/ ._D,3/2 z A,,- | %40
 A,,2 D,/-[D,-G,]/[D,-E,] [D,-G,][D,E,] | .A,2 z2 B,.E, | z/ .B,/.E, z E,[K:treble] E2 | %43
 .[CA]2 =D.A, .G,2 | z2 z2 z/4 .G,3/4.B, | z/ G,/[K:bass].B, .G,.B, B,-[E,B,-] | [G,B,].C C,4 | %47
 x6 | x6 | .D,2 .D,E, z C, | z2 z/ z/4[K:treble] A,/4- A,3 | %51
 z/8 E/8.E/ z/16 E3/16-E/8>E/8-E/4 z/8 .E3/8 [B,G]2 z/16 E3/16 z/4 z/16 [DE]3/16 z/4 z/8 .[DE]3/8 z/16 [DE]3/16 z/4 | %52
 .[DE]/.E/.E/.E/ .[E,E]/A/-[EA-]/[EA]/ z/ .E/(3.E/B3/4-[EB-]/4 | %53
 B/4->[EB-]/4B/ z/4 E/8<E/8-E/4>_C/4 z[K:bass] E,/4-<[E,-E]/4E,/[K:treble] z/ .[B,E]/.E/.E/ | %54
 .E/.E/.E/E/4E/4- E[K:bass]A,,/4-<[A,,E]/4[K:treble].E/ z/4 z/8 z/16 E/16 z/4 z/16 .E3/16B | %55
 .E/4>E/4-E/.E/.E/ [_G_g]/-[Gg]/8-<[_G,G-g-]/8[Gg]/4-[Gg]/8-<[_C,G,G-g-]/8[Gg]/4-[G,Gg]/ .e/._c.A,/ | %56
 .A,3/8 z/16 A,/16-A,3/8 z/16 [=E,a]/16-[E,-a]/4E,/8[E,=e]/8-[E,e]/ z/[K:bass] .B,/4-<.[E,B,]/4.B,/.B,/[K:treble] .[_G,d']/.b/_c'3/8-c'/16_C/16-C/ | %57
[K:bass] ._C/4<.=E,/4_G,/4 z/8 _C,/4-<C,/4C,/8 z/ [E,=E]/-[E,CE]/ z/16 C3/16 z/4 .[A,C]/ .C/.C/.C/.C/ | %58
 ._C/.C/4>C/4-C/4>C/4-C/ z/ .=E,/C/8<C/8 z/4 z/8 .C/4 z/16 C/16- C/[K:treble].[A,C]/-[A,C]/4>C/4-C/ | %59
 ._C z/4[K:bass] C/8<C/8 z/ .[=A,C]/.C/ z/8 .C3/8 z/[K:treble] z/8 .C3/8 z/8 .C3/8 z/16 [F,C]3/16 z/4 .C/ | %60
 ._C/4>[K:bass]C/4-C/4C/4 z/4 .C/4 z/16 [_C,C]3/16 z/4 z/ =E,/8-[E,-C]/4E,/16-[E,C-]/16C3/8 z/16[K:treble] A,/16-A,/4>C/4- C/4>C/4 z/ .C3/4 z/16 C3/16 | %61
 z/4[K:bass] _C/4-C/8>[A,C]/8-[A,C]/4-[A,C]/8>C/8-C3/4 z/8 .C3/8.[=D,A,]/.[D,A,C]/.[D,A,C]/ .[D,A,C]/[A,C]/4C/4-[A,,-C]/A,,/8<C/8 z/4 | %62
 ._C.C/<.C/ z/ z/16 [=D,A,C-]3/16C/4 z/16 [D,A,C]3/16 z/4 .[D,A,C]/ .[D,A,C]/.[A,C]/.[A,C]/ z/16 [A,C]3/16 z/4 | %63
 .[=D,-_C]3/4D,/8>C/8-C/4>C/4-C/ B,/.[_D,B,]/.B,/B,/ .[A,B,]/ z/8 z/16 B,/16-B,/4 z/4 .B,3/4 | %64
 .[D,B,]/.B,/4-.[G,B,-]/4B,/.B,/ .[E,B,].B, z2 | B,6 | %66
 A,/-A,/8>E,/8-E,/4 z/4 .E,3/4 (3.A,/ z/ .E,/ z/4 .E,3/4 (3:2:2z E,/ z/4 z/8 E,/8 z/ | %67
 z/ z/4 E,/4-E,/4>E,/4 z/ (3z .E,.E, [B,E]2 | %68
 (3:2:2z A,/ z/4 z/8 A,/8 z/[K:treble] .[F,B]2 G,3/4-G,/8B,/8-B,/.B,/ | %69
 z/8 z/16[K:bass] G,/16-G,/B,/4 z/ .B,/ (3:2:2G,B,/ z/4 .B,3/4 z/ z/16 B,3/16 z/4 z/4 .B,3/4 | %70
[K:treble] G,/ z/4 .B,/4 z/4 .B,3/4 G,/ z/16 B,3/16-B,/4-B,/8>[K:bass]B,/8-B,3/4 B,/-B,/4-<[E,B,-]/4[E,B,-]/>[G,B,]/- | %71
 [G,B,-]/[E,B,]/C/D/ E/-E/8->[E,E]/8-[E,E-]/4E/4-E/8-<[E,E-]/8E/- [A,E]/-[A,E-]/8>[E,E]/8-[E,E]/4 z/4 .E,3/4 | %72
 =A,3- A,/-A,/16 z/16 z/8 z/4 .F,2 | x6 | .D,2 z2 z2 |[K:treble] z2 C3/2-C3/8 z/8 z2 | %76
 .B,2 z E z2 | z2 z/ .E3/2 E3/4-E3/16 z/16 z | .E>A z A z z/4 E,,3/4 | x6 | .D,,2 z2 .G2 | z2 e4 | %82
 =A4 .F2 | z2 z2 E,,2 | x6 | z2 .e2 z/ z/4 z/16 [E,,E,]3/16 z/ .E,/ | %86
 .E,/ z/8 .[D,e]3/8 z/ .d/ z/8[K:bass] .D,3/8 z/8[K:treble] B3/8 z/4 .[E,A]3/4 [D,G]/ z/8 z/16[K:bass] E,/16-E,/4[K:treble] z/4 .E,/4G/ | %87
 z/ z/4 z/8 E,/8-E,/>G/- G/>c/-c z2 | z [ee']2 z/4 .=e'3/4 .D,.E,/>E,/ | %89
 z/ .E,/ z/4 .[ee']3/4 (3:2:2[dd'][cc']/ z/4 z/8 z/16 [Bb]/16-[Bb]/ .[D,A]/>[Gg]/-[Gg]/d/- | %90
 da- [E,a]4 | x6 | [A,c]2 z2 E,-[E,-=A]/[E,-B]/ | [E,-d]2 [E,C-A-]2 [CA]2 | z2[K:bass] [D,G,]4- | %95
 [D,G,]2 z2 z2 | x6 | x6 | x6 |] %99
V:4
 x6 | A,,6 | z2 C,4 | G,,4 z2 | x6 | E,6 | x6 | D,4 z2 | z2 F,,4 | B,,,4 z2 | z2 A,,,4 | z2 A,,,4 | %12
 A,,6 | E,2 C,4 | G,,4 A,,2 | x6 | E,,3 E,3- | E,2 z2 z D,- | D,2 z2[K:treble] e2- | %19
 e2[K:bass] F,,4- | F,,2 z2 E,,2- | E,,2 A,,4- | A,,4 z2 | x5[K:treble] x | x2[K:bass] x4 | %25
 z .A, z2 z2 | .[G,B,].[G,B,] .A,>[K:treble].A, A,/ z/4 z/8 z/16 [A,CF]/16-[A,CF] | %27
 [B,FA].[B,F] .[B,FA].B, .[_CF].C | z2 z .E z2 | z2 z .A, z2 |[K:bass] x6 | x6 | z2 z2 B,,,2- | %33
 B,,,6 | [E,,B,,]4 z2 | z2 E,,2 B,,,2- | B,,,6 | E,,6- | E,,6- | E,,4 A,,,2- | A,,,2 B,4- | %41
 B,2 z2 z2 | z2 z2 [G,,B,]2 | F,,2 z2 E,2- | E,4 z2 | D,,4 D,2- | D,2 E-[E,E-] [A,E].E, | x6 | %48
 .F,.D, E,,-[E,,-D,] E,,-[E,,D,] | A,,,2 A,,4 | z2 A4 | z z/8[K:treble] A3/8-A/- A2 d2- | %52
 d2[K:bass] z/ .A,3/2 z2 | x6 | %54
 .[=E,G,B,]/.[_E,G,B,]/.[D,G,B,]/.[_C,G,B,]/ .[B,,G,B,]/ z/8 .[_CE]3/8 z/8 .C3/8.C/ .[CE]/ (3z/8 .C3/8.C/4 z/4 .E/4(3E/8-[CE]/8 z/8 z/4 | %55
 x6 | %56
 .[A,,_C,=E,]/.[A,,C,E,]3/8 z/16 [A,,C,A,]/16-[A,,C,A,]/4>[A,,C,]/4 z/ .[D,E,_G,B,]/.[D,G,]/ z/16 [D,E,G,]3/16 z/4 .[D,E,G,]/ .[D,E,]3/8 z/16 [D,E,G,B,]/16-[D,E,G,B,]/[C,E,A,]/4 z/8 z/16 E,/16-E,3/8 z/16 [C,A,]/16- | %57
 [C,A,]/.[_C,,_C,]/4>C,,/4-C,,/4>.C,,/4 z/ z/ .A,/ z/16 A,3/16-A,3/4 .A,/.A,/.A,/.A,/ | %58
 z2 z/4 =E,,3/4[K:treble] .A3[K:bass] | z2 [_G,E]2 z2 | x6 | x6 | %62
 .[=D,A,]3/8 z/16 [D,A,_C]/16-[D,A,C]/.[D,A,]/4 z/16 [D,A,]3/16 z/ .[D,A,C]/.F,,,/A,,,/._C,,/ =D,,/4 z/8 z/16 [F,,D,]/16-[F,,D,]/A,,/-[A,,D,]/ | %63
 z z/4 z/8 =D,/8 z/ z z/ z/16 [_D,A,]3/16 z/4 z2 | z z/ .D,/ z/ z/4 D,/4 z .C,2 | z2 D,4 | %66
 C,4 G,,2- | G,,2 z2 G,,2 | z .=D/-.[A,D-]/4.[A,D]/4- [A,D]2 E,2- | [E,,-E,]4 [E,,G,]2 | D,,4 z2 | %71
 z .E, C,4 | F,,4 B,,,2- | B,,,2 E,,4 | A,,,2 A,,4 | z2 A,,4 | D,3 C,3 | z2 G,,2 A,,2 | %78
 z/ .E,F,,/- [F,,-A,,]/F,,/4-<[F,,A,,]/4F,,- [F,,A,,]/ z/16 .A,,3/16 z/4 G | %79
 .G,,/.B,,/.E,3/8 z/16 G,/16-G,/ .B,[K:treble].G z/ z/4 z/8 z/16 B/16-B/.B/ | %80
 G/ z/4[K:bass] G,,/4 z/ .B,,/ .D,/.G,/ z/4 .B,3/4[K:treble] z2 | z .E .A2 z2 | %82
[K:bass] .E2 z2 B,,2- | B,,2 E,,3/4 z/4 z z2 | x6 | x37/12[K:treble] x11/12[K:bass] x2 | %86
 z/ z/8 E,,3/8 z z2 z2 | [A,,C,]4 z2 | x13/4[K:treble] x3/4[K:bass] x2 | %89
 z/4 z/8 z/16 [E,,D,]/16-[E,,D,]/ z/4 .[E,,D,E,]3/4 (3[E,,D,E,]/ z/ [E,,D,E,]/ z/4 z/8 z/16 [E,,D,E,]/16-[E,,D,E,]/ .[E,,E,]/>[E,,D,E,]/-[E,,D,E,]/>[E,,D,]/- | %90
 [E,,D,]<.[E,,D,E,] z .[A,,C,]3 |[K:treble] x6 | A2 z2 [DG]2- | %93
 [DG]/->[DGc]/-[D-G-c]/[DG-B]/ [A,-G]2 A,2 | z2[K:bass] E,,4- | E,,2 z2 z2 | x6 | x6 | x6 |] %99

